Obsidian-SemiLight/actions/22s/document-close.svg

<svg viewBox="0 0 22 22" xmlns="http://www.w3.org/2000/svg"><g fill="#da4453"><path d="m4 3v16h1 6v-1h-6v-14h12v9h1v-10h-1-12z"/><path d="m13.707031 14-.707031.707031 1.792969 1.792969-1.792969 1.792969.707031.707031 1.792969-1.792969 1.792969 1.792969.707031-.707031-1.792969-1.792969 1.792969-1.792969-.707031-.707031-1.792969 1.792969z"/></g></svg>

<svg xmlns="http://www.w3.org/2000/svg" viewBox="0 0 22 22">
 <g style="fill:#da4453">
  <path d="m4 3v16h1 6v-1h-6v-14h12v9h1v-10h-1-12-1"/>
  <path d="M 13.707031 14 L 13 14.707031 L 14.792969 16.5 L 13 18.292969 L 13.707031 19 L 15.5 17.207031 L 17.292969 19 L 18 18.292969 L 16.207031 16.5 L 18 14.707031 L 17.292969 14 L 15.5 15.792969 L 13.707031 14 z "/>
 </g>
</svg>
